!!!OTL: Es ist dunkel auf hohen Bergen (3-58), S. 168
!!!id: P1030
**kern
*clefG2
*k[b-]
*F:
{8cc
8dd
=1
4cc
8a
8f
4a
4dd
=2
2cc
4a}
=3
{8cc
8ff
=4
4dd
4cc
4b-
4a
=5
2.g}
=6
{8cc
8b-
=7
8a
8a
4g
8f
8f
4e
=8
4f
4a
4g}
=9
{8cc
8dd
=10
4.cc
8g
4a
4g
=11
2.f}
=12
{8cc
8b-
=13
8a
4a
8g
8f
8f
4e
=14
4f
4a
4g}
=15
{8cc
8dd
=16
4.cc
8g
4a
4g
=17
2.f}
==
*-
!!!minrhy: 8
!!!meters: 4/4 ]  ZZ[6
!!!cut: Es ist dunkel auf hohen Bergen (3-58), S. 168
!!!reg: Lothringen
!!!trd: PINCK, Louis: Verklingende Weisen, Bd3, Metz 1933
!!!rhy1: XX  X_XXX_X_  X__X_
!!!rhy2: XX  X_X_X_X_  X__.
!!!key: P1030  08  F 4/4 ]  ZZ[6
!!!mod: HEPTATONIK IONISCH]  AMBITUS[9b
!!!kad: 322121
!!!akz: 5353_6422_3112_5311_3112_5311_
!!!fot: 'a__b__c__bs'c__bs'
!!!for: 'a__b__c__d__e__d__
!!!fok: '\__\__Vd_\__Vd_\__
!! PHRAS[AUFTAKTIG]
!!!fkt: verlorene Liebe
!!!bem: Melodie der 1. Strophe
!! LOTH VKL
!! PR[5] 2K[5] 2G[21] 3K[5] 3G[0] 4A[8] 4Ü[0] 5A[3] 6K[0] 6G[0]
!! 7K[0] 7G[0] 8A[0] MEHR[0] SI[42] ABS[38] SR[26] SP[16]
!! ST[8] 2k[13] 2g[32] 3k[3] 3g[3] 4d[3] 4ü[0] 5d[0] 6k[0] 6g[0]
!! 7k[0] 7g[0] 8d[0] mehr[0] si[53] dm[-11] sr[45] sp[8]
!! 1F[64] 2F[21] 3F[5] 4F[0] LF[0] 2P[8] 3P[3] 4P[0] TRI[0] DF[5] AB[39]
!! TF[0] U3K[0] U3[0] U4[0] U4Ü[0] U5[3] U6K[0] U6[0] U7K[0] U7[3]
!! N1[13] N2K[0] N2[18] N3K[0] N3[18] N4[13] N4Ü[0] N5[23] N6K[0] N6[8]
!!!n7k: 0] N7[0] O1[3] O2K[0] O2[0] O3K[0] O3[0] HÖ[0
